X:177
M:2/4
L:1/8
K:Gmin
(B/c/)|d B2 d|c A2 c|B G2 B|A^F D2|G2 AB|cAG^F|G2 G2|G3:|
|:B/c/|d b2 (a|a) g2 (f|f2) gf|f2 gA|B2 cd|e2 fg|fdcB|{B}A2 GF|

